src/assets/img/globalping/see-results-icon.svg

<svg width="20" height="20" viewBox="0 0 20 20" fill="none" xmlns="http://www.w3.org/2000/svg">
<g clip-path="url(#clip0_6049_5102)">
<path d="M16.0909 1H3.90909C2.25224 1 0.909091 2.34315 0.909091 4V16C0.909091 17.6569 2.25224 19 3.90909 19H16.0909C17.7478 19 19.0909 17.6569 19.0909 16V4C19.0909 2.34315 17.7478 1 16.0909 1Z" stroke="#17233A" stroke-width="2" stroke-linecap="round" stroke-linejoin="round"/>
<path d="M4.54545 6L14.5455 6" stroke="#17233A" stroke-width="2" stroke-linecap="round" stroke-linejoin="round"/>
<path d="M4.54545 11.6667H5.76802L7.39812 15L9.84326 10L11.8809 15L13.511 12.5H15.4545" stroke="#17233A" stroke-width="2" stroke-linecap="round" stroke-linejoin="round"/>
</g>
<defs>
<clipPath id="clip0_6049_5102">
<rect width="20" height="20" fill="white"/>
</clipPath>
</defs>
</svg>

<svg xmlns="http://www.w3.org/2000/svg" width="20" height="20" fill="none">
  <g stroke="#17233A" stroke-linecap="round" stroke-linejoin="round" stroke-width="2" clip-path="url(#a)">
    <path d="M16.09 1H3.91a3 3 0 0 0-3 3v12a3 3 0 0 0 3 3h12.18a3 3 0 0 0 3-3V4a3 3 0 0 0-3-3ZM4.545 6h10"/>
    <path d="M4.545 11.667h1.223L7.398 15l2.445-5 2.038 5 1.63-2.5h1.944"/>
  </g>
  <defs>
    <clipPath id="a">
      <path fill="#fff" d="M0 0h20v20H0z"/>
    </clipPath>
  </defs>
</svg>
